X: 21
T:Charlie O'Donnel's
M:4/4
L:1/8
F:http://blackrosetheband.googlepages.com/ABCTUNES.ABC May 2009
Q:1/4=200
S:Altan - Altan Track 7
R:reel
K:D
|EBBA BABc|d2 AG FEDF|EBBA BABc|dBAc BEED|
(3EFE cE BEBc|d2 AG FEDF|EBBA FABc|dBAc BEE2|
Beed egfe|d2 fd adfd|Beed egfe|dAFA BE ~E2|
Beed egfe|defg abaf|gage fgfe|d2 AF DEFD|

